X:14001
T:Nathaniel Gow's Lament for the Death of His Brother
T:Gallowglass
R:Lament
C:Nathaniel Gow (1763-1831)
O:Scotland
M:6/8
L:1/8
Q:1/8=120
K:Am
A/B/|"Am"c>BA eBd|cAA A2A/B/|cBA e^fg|"Em"BGG G2A/B/|
"Am"cBA eBd|cea e2d|c>BA EA^G|A[AC][AC] [A2C2]:|
e|"Am"a^ga e=g/f/e/d/|cAA A2A/B/|cBA e^fg|"Em"BGG G2e|
"Am"a^ga e=g/f/e/d/|cAA Ae>d|c>BA EA^G|A[AC][AC] [A2C2]e|
"Am"a^ga e=g/f/e/d/|cAA A2A/B/|cBA e^fg|"Em"BGG G2e|
"Am"aeg fdB|"Em"ecA B^GE|"Am"ABc "Em"Be/d/c/B/|"Am"cA[AD] [A3C3]|]

